storage/app/icons/phosphoricons/duotone/arrows-out-simple-duotone.svg

<svg xmlns="http://www.w3.org/2000/svg" fill="currentColor" viewBox="0 0 256 256"><path d="M224 48v160a16 16 0 0 1-16 16H48a16 16 0 0 1-16-16V48a16 16 0 0 1 16-16h160a16 16 0 0 1 16 16" opacity=".2"/><path d="M216 48v48a8 8 0 0 1-16 0V67.31l-50.34 50.35a8 8 0 0 1-11.32-11.32L188.69 56H160a8 8 0 0 1 0-16h48a8 8 0 0 1 8 8m-109.66 90.34L56 188.69V160a8 8 0 0 0-16 0v48a8 8 0 0 0 8 8h48a8 8 0 0 0 0-16H67.31l50.35-50.34a8 8 0 0 0-11.32-11.32"/></svg>

<svg xmlns="http://www.w3.org/2000/svg" viewBox="0 0 256 256" fill="currentColor"><path d="M224,48V208a16,16,0,0,1-16,16H48a16,16,0,0,1-16-16V48A16,16,0,0,1,48,32H208A16,16,0,0,1,224,48Z" opacity="0.2"/><path d="M216,48V96a8,8,0,0,1-16,0V67.31l-50.34,50.35a8,8,0,0,1-11.32-11.32L188.69,56H160a8,8,0,0,1,0-16h48A8,8,0,0,1,216,48ZM106.34,138.34,56,188.69V160a8,8,0,0,0-16,0v48a8,8,0,0,0,8,8H96a8,8,0,0,0,0-16H67.31l50.35-50.34a8,8,0,0,0-11.32-11.32Z"/></svg>
